svg/ansible.svg

<?xml version="1.0" encoding="UTF-8"?>
<svg xmlns="http://www.w3.org/2000/svg" xmlns:xlink="http://www.w3.org/1999/xlink" width="32" height="32" viewBox="0 0 32 32">
<path fill-rule="nonzero" fill="rgb(0%, 0%, 0%)" fill-opacity="1" d="M 27.710938 16.308594 C 27.710938 22.601562 22.613281 27.703125 16.320312 27.703125 C 10.027344 27.703125 4.929688 22.601562 4.929688 16.308594 C 4.929688 10.019531 10.027344 4.917969 16.320312 4.917969 C 22.613281 4.917969 27.710938 10.015625 27.710938 16.308594 "/>
<path fill-rule="nonzero" fill="rgb(100%, 100%, 100%)" fill-opacity="1" d="M 16.511719 12.042969 L 19.457031 19.316406 L 15.007812 15.808594 Z M 21.75 20.992188 L 17.214844 10.078125 C 17.109375 9.785156 16.824219 9.589844 16.511719 9.601562 C 16.191406 9.589844 15.902344 9.78125 15.785156 10.078125 L 10.804688 22.046875 L 12.511719 22.046875 L 14.484375 17.109375 L 20.363281 21.855469 C 20.597656 22.046875 20.769531 22.132812 20.992188 22.132812 C 21.207031 22.140625 21.417969 22.058594 21.574219 21.910156 C 21.730469 21.761719 21.820312 21.558594 21.824219 21.34375 L 21.824219 21.324219 C 21.820312 21.210938 21.796875 21.097656 21.75 20.992188 "/>
</svg>

<svg role="img" viewBox="0 0 32 32" height="32" width="32" xmlns="http://www.w3.org/2000/svg"><path d="M27.71 16.309c0 6.293-5.097 11.394-11.39 11.394S4.93 22.602 4.93 16.31c0-6.29 5.097-11.391 11.39-11.391s11.39 5.098 11.39 11.39"/><path d="m16.512 12.043 2.945 7.273-4.45-3.507Zm5.238 8.95-4.535-10.915a.722.722 0 0 0-.703-.476.75.75 0 0 0-.727.476l-4.98 11.969h1.707l1.972-4.938 5.88 4.746c.234.192.406.278.628.278a.807.807 0 0 0 .832-.79v-.019a.892.892 0 0 0-.074-.332" fill="rgb(100%, 100%, 100%)"/></svg>
